icons/dice-f.svg

<svg width="20" height="20" xmlns="http://www.w3.org/2000/svg"><path d="M16,0 C18.209139,0 20,1.790861 20,4 L20,16 C20,18.209139 18.209139,20 16,20 L4,20 C1.790861,20 0,18.209139 0,16 L0,4 C0,1.790861 1.790861,0 4,0 L16,0 Z M15,13 C13.8954305,13 13,13.8954305 13,15 C13,16.1045695 13.8954305,17 15,17 C16.1045695,17 17,16.1045695 17,15 C17,13.8954305 16.1045695,13 15,13 Z M10,8 C8.8954305,8 8,8.8954305 8,10 C8,11.1045695 8.8954305,12 10,12 C11.1045695,12 12,11.1045695 12,10 C12,8.8954305 11.1045695,8 10,8 Z M5,3 C3.8954305,3 3,3.8954305 3,5 C3,6.1045695 3.8954305,7 5,7 C6.1045695,7 7,6.1045695 7,5 C7,3.8954305 6.1045695,3 5,3 Z"/></svg>

<svg width="20" height="20" xmlns="http://www.w3.org/2000/svg" fill="currentColor"><path d="M16 0a4 4 0 0 1 4 4v12a4 4 0 0 1-4 4H4a4 4 0 0 1-4-4V4a4 4 0 0 1 4-4h12Zm-1 13a2 2 0 1 0 0 4 2 2 0 0 0 0-4Zm-5-5a2 2 0 1 0 0 4 2 2 0 0 0 0-4ZM5 3a2 2 0 1 0 0 4 2 2 0 0 0 0-4Z"/></svg>
